pldoc/static/images/icons/check-square-o.svg

<?xml version="1.0" encoding="utf-8"?>
<!-- Generated by IcoMoon.io -->
<!DOCTYPE svg PUBLIC "-//W3C//DTD SVG 1.1//EN" "http://www.w3.org/Graphics/SVG/1.1/DTD/svg11.dtd">
<svg version="1.1" xmlns="http://www.w3.org/2000/svg" xmlns:xlink="http://www.w3.org/1999/xlink" width="13" height="14" viewBox="0 0 13 14">
<path fill="#444444" d="M11 7.266v2.484q0 0.93-0.66 1.59t-1.59 0.66h-6.5q-0.93 0-1.59-0.66t-0.66-1.59v-6.5q0-0.93 0.66-1.59t1.59-0.66h6.5q0.492 0 0.914 0.195 0.117 0.055 0.141 0.18 0.023 0.133-0.070 0.227l-0.383 0.383q-0.078 0.078-0.18 0.078-0.023 0-0.070-0.016-0.18-0.047-0.352-0.047h-6.5q-0.516 0-0.883 0.367t-0.367 0.883v6.5q0 0.516 0.367 0.883t0.883 0.367h6.5q0.516 0 0.883-0.367t0.367-0.883v-1.984q0-0.102 0.070-0.172l0.5-0.5q0.078-0.078 0.18-0.078 0.047 0 0.094 0.023 0.156 0.062 0.156 0.227zM12.805 3.445l-6.359 6.359q-0.187 0.187-0.445 0.187t-0.445-0.187l-3.359-3.359q-0.187-0.187-0.187-0.445t0.187-0.445l0.859-0.859q0.187-0.187 0.445-0.187t0.445 0.187l2.055 2.055 5.055-5.055q0.187-0.187 0.445-0.187t0.445 0.187l0.859 0.859q0.187 0.187 0.187 0.445t-0.187 0.445z"></path>
</svg>

<svg xmlns="http://www.w3.org/2000/svg" width="13" height="14" viewBox="0 0 13 14"><path fill="#444" d="M11 7.266V9.75q0 .93-.66 1.59T8.75 12h-6.5q-.93 0-1.59-.66T0 9.75v-6.5q0-.93.66-1.59T2.25 1h6.5q.492 0 .914.195.117.055.14.18.024.133-.07.227l-.382.383q-.078.078-.18.078-.023 0-.07-.016Q8.922 2 8.75 2h-6.5q-.516 0-.883.367T1 3.25v6.5q0 .516.367.883T2.25 11h6.5q.516 0 .883-.367T10 9.75V7.766q0-.102.07-.172l.5-.5q.078-.078.18-.078.047 0 .094.023.156.06.156.225zm1.805-3.82l-6.36 6.358Q6.26 9.99 6 9.99t-.443-.185l-3.36-3.36Q2.01 6.26 2.01 6t.187-.445l.86-.86q.186-.186.444-.186t.447.185L6 6.75l5.056-5.054q.187-.187.445-.187t.447.185l.86.86q.186.186.186.444t-.187.444z"/></svg>
